X:1
T:Title
%%score { 1 | 2 }
L:1/8
M:3/4
K:Bb
V:1 treble nm="Grand Piano"
V:2 bass 
V:1
 z2 z2 z[Q:1/4=100] [DF] | [DF][DB] [Fd]3 [DB] | [Ec]>[DB] [DB]3 [FB] | [GB]3 [Gc] [GB]>[EG] | %4
 [DF]3 d e>d | c3 e d>c | [DB]4 [Fd]2 | [=Ec]3 [EG] [EA][EB] | [Ec]4 z [EF] | [DF][DB] [Fd]3 [DB] | %10
 [Ec]>[DB] [DB]3 [FB] | [GB]3 [Gc] [GB]>[EG] | [DF]3 [DF] [DB][Ec] | [Fd]3 B cd | [Ge]4 G2 | %15
 FB A3 [DB] |[M:2/4] [DB]4 |[M:4/4] [DF][EG] [DB]2 [DB]>[DB] [EG][DF] | [DF][FB] c2 c>d [Ec][DB] | %19
 [FB]c d2 d>d [Gc][GB] |[M:7/8] [GB]GF<BB c[DB]- | [DB] z z z z z2 |] %22
V:2
 z2 z2 z [B,,B,] | [B,,B,][B,,F,] [B,,B,]3 [B,,F,] | [B,,F,]>[B,,F,] [B,,F,]3 [D,B,] | %3
 [E,B,]3 [E,E] [E,E]>[E,B,] | [B,,B,]3[K:treble] [B,F] [B,G]>[B,F] | %5
 [F,A,F]3 [F,CF][K:bass] [F,B,F]>[F,A,E] | [B,,B,]4 [B,,B,]2 | [C,B,]3 [C,B,] [C,A,][C,G,] | %8
 [F,A,]4 z [F,A,] | [B,,B,][B,,F,] [B,,B,]3 [B,,F,] | [B,,F,]>[B,,F,] [B,,F,]3 [D,B,] | %11
 [E,B,]3 [E,E] [E,E]>[E,B,] | [B,,B,]3 [B,,B,] [B,,B,][B,,B,] | %13
 [B,,B,]3[K:treble] [B,D] [B,E][B,F] | [E,B,]4 [E,B,E]2 | [F,B,D][F,DF] [F,CD]3 [B,,B,] | %16
[M:2/4] [B,,B,]4 |[M:4/4] [B,,B,][B,,B,] [B,,F,]2 [B,,F,]>[B,,F,] [B,,B,][B,,B,] | %18
 [B,,B,][D,B,] [F,A,E]2 [F,A,E]>[F,A,F] [B,,F,][B,,F,] | %19
 [D,B,][K:treble][F,A,F] [B,F]2 [B,F]>[B,_A][K:bass] [E,B,][E,B,] | %20
[M:7/8] [E,B,][E,B,E][F,B,D]<[F,B,D][F,B,D] [F,A,E][B,,B,]- | [B,,B,] z z z z z2 |] %22

